X: 23633
T: Lily's March
R: three-two
M: 3/2
K: Dmajor
A,2 D2ED|:{E}F4 A3F (E2{FE}D2)|[M:2/2]{A,}B,4 A,4-|A,2A,2 D2EF|[M:3/2]{E}F4 A3F (E2{FE}D)F|
{D}E6 A,2 D2ED|{E}F4 A3F (E2{FE}D2)|[M:2/2]{A,}B,4 A,4-|A,2A,2 D2ED|
[M:3/2]{E}F4 A3F EDCC|1 {C}[D6D6] A,2 D2ED:|2 {C}[D6D6] A2 d2f2|
{f}a3a a2(a2 b2)aa|{f}g3g g2(g2 a2)gg|{e}f3f f2e2 d2(f2{ef}|[M:2/2]e2)cA A4-|A2(A2 d2)ff|
[M:3/2] {f}a3a a2(a2 b2)aa|{f}g3g g2(g2 a2)gg|{e}f3(f/g/ fe)(df) (eA)cA|{c}[D3d3][Dd]- [D2d2](A2 d2)e2|
{f}a3a a2(a2 b2)aa|{f}g3g g2(g2 a2)gg|{e}f3f f2e2 d2(f2{ef}|e2)c2 A8|z6 A,2 D2ED|
{E}F4 A3F (E2{FE}D2)|[M:2/2]{A,}B,4 A,4-|A,2A,2 D2ED|[M:3/2]{E}F4 A3F EDCC|{C}[D6D6]||

